!!!COA:	Josquin des Prez
!!!CDT:	~1450-1521/08/27
!!!OTL:	Levavi oculos meos
!!!AGN:	Motet
!!!SCT:	NJE 17.13
!!!SCA:	New Josquin Edition 17.13
!!!voices:	4
**kern	**kern	**kern	**kern
*staff4	*staff3	*staff2	*staff1
*Ivox	*Ivox	*Ivox	*Ivox
*I"Bassus	*I"Tenor	*I"Altus	*I"Superius
*I'B	*I'T	*I'A	*I'S
*clefF4	*clefGv2	*clefGv2	*clefG2
*>[A,B]	*>[A,B]	*>[A,B]	*>[A,B]
*>A	*>A	*>A	*>A
*k[b-]	*k[b-]	*k[b-]	*k[b-]
*M2/1	*M2/1	*M2/1	*M2/1
*met(C|)	*met(C|)	*met(C|)	*met(C|)
=1-	=1-	=1-	=1-
0r	0r	0r	1G
.	.	.	2G/
.	.	.	2G/
=2	=2	=2	=2
0r	0r	0r	1d
.	.	.	1d
=3	=3	=3	=3
0r	0r	1G	2.e/
.	.	.	4d/
.	.	2G/	[1g
.	.	2G/	.
=4	=4	=4	=4
0r	0r	1d	2g/]
.	.	.	4f/
.	.	.	4e/
.	.	1d	1f
=5	=5	=5	=5
1GG	0r	2.e\	2.g/
.	.	4d\	4a/
2GG/	.	[1g	4b-\
.	.	.	4cc\
2GG/	.	.	[2b-\
=6	=6	=6	=6
1D	0r	2g\]	2b-\]
.	.	4f\	4a/
.	.	4e\	4g/
1D	.	1f	1a
=7	=7	=7	=7
2.E\	1G	0g	0g
4D\	.	.	.
[1G	2G/	.	.
.	2G/	.	.
=8	=8	=8	=8
2G\]	1d	0r	1r
4F\	.	.	.
4E\	.	.	.
1F	1d	.	1dd
=9	=9	=9	=9
1G	2.e\	1r	2g/
.	.	.	2.dd\
.	4d\	.	.
2.G\	[1g	2r	.
.	.	.	4cc\
.	.	2G/	2b-\
4F\	.	.	.
=10	=10	=10	=10
1E	2g\]	2B-\	2b-\
.	4f\	2c\	4a/
.	4e\	.	4g/
1D	1f	1d	1a
=11	=11	=11	=11
2r	1g	2.B-\	2g/
2GG/	.	.	1b-
.	.	4c\	.
2BB-/	1G	2d\	.
2C/	.	2e\	4a/
.	.	.	4g/
=12	=12	=12	=12
1D	0r	2.f\	[0f
.	.	4e\	.
2.BB-/	.	4d\	.
.	.	4c\	.
.	.	[2d\	.
4C/	.	.	.
=13	=13	=13	=13
2D\	1r	2d\]	1f]
2E\	.	4c\	.
.	.	4B-\	.
2F\	2r	2A/	1r
[2G\	2G/	2G/	.
=14	=14	=14	=14
2G\]	2B-\	2d\	0r
4F\	2c\	2e\	.
4E\	.	.	.
1D	1d	1f	.
=15	=15	=15	=15
0GG	2.B-\	0g	2r
.	.	.	2g/
.	4c\	.	.
.	2d\	.	2b-\
.	2e\	.	2cc\
=16	=16	=16	=16
0r	2.f\	2r	1dd
.	.	2d\	.
.	4e\	.	.
.	4d\	2G/	2.b-\
.	4c\	.	.
.	[2d\	[2B-\	.
.	.	.	4cc\
=17	=17	=17	=17
0r	2d\]	2B-\]	2dd\
.	4c\	4A/	2ee\
.	4B-\	4G/	.
.	2A/	2F/	2ff\
.	4G/	2G/	[2dd\
.	4A/	.	.
=18	=18	=18	=18
0r	4B-\	1G	4dd\]
.	4c\	.	4cc\
.	4d\	.	2b-\
.	4e\	.	.
.	2f\	2r	2a/
.	[2d\	2G/	[2b-\
=19	=19	=19	=19
0r	2d\]	2d\	2b-\]
.	1g	2e-\	4a/
.	.	.	4g/
.	.	[1d	1a
.	2f#i\	.	.
=20	=20	=20	=20
1GG	1g	2d\]	1g
.	.	2d\	.
1D	[1f	[1d	1d
=21	=21	=21	=21
1.D	2f\]	1d]	1a
.	2d\	.	.
.	[1d	1r	[1a
2D\	.	.	.
=22	=22	=22	=22
1D	1d]	2r	2a/]
.	.	2.f\	2a/
2r	1r	.	1a
.	.	4e\	.
2F\	.	[2d\	.
=23	=23	=23	=23
2G\	0r	2d\]	0r
2A\	.	2c\	.
2F\	.	2f\	.
[2G\	.	[2e\	.
=24	=24	=24	=24
4G\]	0r	4e\]	2r
4F\	.	4d\	.
2D\	.	1d	2.b-\
1E-	.	.	.
.	.	.	4a/
.	.	2c\	2g/
=25	=25	=25	=25
1D	2r	1d	1f
.	2.B-\	.	.
2r	.	1B-	2g/
.	4A/	.	.
2G\	2G/	.	2b-\
=26	=26	=26	=26
1A	1F	1c	4a/
.	.	.	4b-\
.	.	.	4cc\
.	.	.	4a/
2G\	2G/	2r	2b-\
2D\	2A/	[2d\	[2a/
=27	=27	=27	=27
2G\	2B-\	2d\]	4a/]
.	.	.	4g/
2C/	2c\	2e-i\	1g
1D	1A	1d	.
.	.	.	2f#i/
=28	=28	=28	=28
2GG/	1G	1.B-	0g
1G	.	.	.
.	1r	.	.
4F\	.	4A/	.
4E\	.	4G/	.
=29	=29	=29	=29
2.G\	1G	1B-	1r
4F\	.	.	.
[1D	1d	2A/	1d
.	.	[2d\	.
=30	=30	=30	=30
0D_	1.d	2d\]	1a
.	.	4c\	.
.	.	4B-\	.
.	.	2.d\	[1a
.	2d\	.	.
.	.	4c\	.
=31	=31	=31	=31
1D]	1d	1A	2a/]
.	.	.	2a/
1r	2r	1r	1a
.	[2d\	.	.
=32	=32	=32	=32
0r	2d\]	0r	2r
.	2c\	.	1a
.	2d\	.	.
.	2e\	.	2g/
=33	=33	=33	=33
0r	2f\	0r	2a/
.	2d\	.	2b-\
.	2c\	.	2a/
.	[2d\	.	[2b-\
=34	=34	=34	=34
1r	4d\]	0r	4b-\]
.	4c\	.	4a/
.	4B-\	.	4g/
.	4A/	.	4f/
1GG	1B-	.	1g
=35	=35	=35	=35
1D	0A	1D	[0f
2.D\	.	1A	.
4D\	.	.	.
=36	=36	=36	=36
1D	0r	2.A/	0f]
.	.	4A/	.
2r	.	1A	.
[2D\	.	.	.
=37	=37	=37	=37
2D\]	0r	2r	0r
2C/	.	1A	.
2D\	.	.	.
2E\	.	2G/	.
=38	=38	=38	=38
2F\	0r	2A/	0r
2D\	.	2B-\	.
2C/	.	2A/	.
[2D\	.	[2B-\	.
=39	=39	=39	=39
4D\]	0r	4B-\]	1r
4C/	.	4A/	.
4BB-/	.	4G/	.
4AA/	.	4F/	.
1BB-	.	1G	1d
=40	=40	=40	=40
2AA/	1A	0A	1.f
2A\	.	.	.
2.F\	[1c	.	.
.	.	.	2f/
4G\	.	.	.
=41	=41	=41	=41
2A\	2c\]	0r	2e/
2A\	2c\	.	2f/
2G\	2B-\	.	2g/
2A\	2c\	.	2e/
=42	=42	=42	=42
2D\	2d\	0r	2d/
2E-\	2B-\	.	1g
2C/	2c\	.	.
2D\	2A/	.	2f#i/
=43	=43	=43	=43
[0GG	[0G	1d	1g
.	.	[1g	2r
.	.	.	2g/
=44	=44	=44	=44
0GG]	0G]	2g\]	1.dd
.	.	2g\	.
.	.	1g	.
.	.	.	2dd\
=45	=45	=45	=45
0D	0A	1f	2dd\
.	.	.	1dd
.	.	1d	.
.	.	.	4cc\
.	.	.	4b-\
=46	=46	=46	=46
0r	2r	1f	2a/
.	2d\	.	2a/
.	2B-\	2g\	2b-\
.	2A/	2e\	2cc\
=47	=47	=47	=47
1D	1D	[0d	1dd
[1G	2r	.	2r
.	2G/	.	[2dd\
=48	=48	=48	=48
2G\]	1.d	0d]	4dd\]
.	.	.	4cc\
2G\	.	.	4b-\
.	.	.	4a/
1G	.	.	2b-\
.	2d\	.	2b-\
=49	=49	=49	=49
1F	2d\	0r	0a
.	1d	.	.
1D	.	.	.
.	4c\	.	.
.	4B-\	.	.
=50	=50	=50	=50
1F	2A/	1r	0r
.	2A/	.	.
2G\	2B-\	2r	.
2E\	2c\	2g\	.
=51	=51	=51	=51
1D	1d	2f\	2r
.	.	2d\	2dd\
1r	1r	2.f\	2cc\
.	.	.	2a/
.	.	4e\	.
=52	=52	=52	=52
0r	0r	2c\	2cc\
.	.	2.g\	2b-\
.	.	.	2g/
.	.	4f\	.
.	.	2d\	2dd\
=53	=53	=53	=53
0r	0r	2.f\	4cc\
.	.	.	4b-\
.	.	.	4a/
.	.	4e\	4g/
.	.	2d\	2b-\
.	.	[2c\	[2a/
=54	=54	=54	=54
0r	0r	4c\]	4a/]
.	.	4B-\	4g/
.	.	2G/	1g
.	.	1A	.
.	.	.	2f#i/
=55	=55	=55	=55
1r	0r	1G	0g
2r	.	1B-	.
2G\	.	.	.
=56	=56	=56	=56
2F\	2r	1A	0r
2D\	2d\	.	.
2.F\	2c\	1r	.
.	2A/	.	.
4E\	.	.	.
=57	=57	=57	=57
2C/	2c\	0r	0r
2.G\	2B-\	.	.
.	2G/	.	.
4F\	.	.	.
2D\	2d\	.	.
=58	=58	=58	=58
2.F\	4c\	0r	0r
.	4B-\	.	.
.	4A/	.	.
4E\	4G/	.	.
2D\	2B-\	.	.
2C/	[2A/	.	.
=59	=59	=59	=59
2D\	4A/]	0r	1r
.	4G/	.	.
2BB-/	1G	.	.
1AA	.	.	2r
.	2F#i/	.	2a/
=60	=60	=60	=60
1GG	1G	2r	1b-
.	.	2d\	.
1D	2r	1f	2a/
.	2F/	.	2f/
=61	=61	=61	=61
0r	1c	2e\	2g/
.	.	2c\	2a/
.	1B-	2d\	1b-
.	.	2e\	.
=62	=62	=62	=62
0r	0r	2f\	2a/
.	.	1e-	1g
.	.	2d\	2f/
=63	=63	=63	=63
0r	0r	2c\	2e-i/
.	.	2B-\	2d/
.	.	1e-i	1g
=64	=64	=64	=64
2r	1r	1d	0f
2D\	.	.	.
1F	2r	2.c\	.
.	2A/	.	.
.	.	4B-\	.
=65	=65	=65	=65
2F\	1c	2A/	0r
2C/	.	2G/	.
2.E\	2c\	1r	.
.	2G/	.	.
4F\	.	.	.
=66	=66	=66	=66
1G	2B-\	1r	2r
.	2c\	.	2d/
1D	1d	1A	2.f/
.	.	.	4g/
=67	=67	=67	=67
2r	1A	2.A/	1a
2D\	.	.	.
.	.	4G/	.
2D\	2A/	4F/	2d/
.	.	4E/	.
[2D\	2A/	[2F/	[2a/
=68	=68	=68	=68
4D\]	1A	2F/]	4a/]
4C/	.	.	4b-\
2AA/	.	1E	2cc\
1BB-	1G	.	1dd
.	.	2D/	.
=69	=69	=69	=69
[0AA	[0A	2E/	2cc\
.	.	4F/	1a
.	.	4G/	.
.	.	4A/	.
.	.	4B-\	.
.	.	4c\	4g/
.	.	4d\	4f/
=70	=70	=70	=70
1AA]	0A]	2e\	4g/
.	.	.	4f/
.	.	1d	4e/
.	.	.	4d/
2r	.	.	1e
2AA/	.	2c#i\	.
=71	=71	=71	=71
4BB-/	[0D	2d\	0d
4C/	.	.	.
4D\	.	2.f\	.
4E\	.	.	.
4F\	.	.	.
4G\	.	4e\	.
[2A\	.	4d\	.
.	.	4c\	.
=72	=72	=72	=72
2A\]	0D]	2d\	1r
1G	.	2B-\	.
.	.	1A	1a
2F#i\	.	.	.
=73	=73	=73	=73
1G	1r	2G/	1b-
.	.	2d\	.
2r	2r	1e	[1cc
2C/	2G/	.	.
=74	=74	=74	=74
1F	1A	1.f	2cc\]
.	.	.	2a/
1BB-	2F/	.	1b-
.	2B-\	2d\	.
=75	=75	=75	=75
1C	2G/	1e	1r
.	2c\	.	.
1D	2A/	1r	1f
.	2B-\	.	.
=76	=76	=76	=76
2C/	1G	1c	1g
2BB-/	.	.	.
1AA	1c	1c	[1a
=77	=77	=77	=77
1D	1A	1.d	2a/]
.	.	.	2f/
1GG	1B-	.	[1g
.	.	2B-\	.
=78	=78	=78	=78
1C	2r	0c	0g]
.	1G	.	.
[1C	.	.	.
.	[2E/	.	.
=79	=79	=79	=79
2C/]	4E/]	1r	1r
.	4F/	.	.
2BB-/	2G/	.	.
1C	2E/	1c	1g
.	2C/	.	.
=80	=80	=80	=80
0GG	0D	1g	1b-
.	.	1g	1b-
=81	=81	=81	=81
0r	0r	2f\	2a/
.	.	2d\	2f/
.	.	2e\	2g/
.	.	2c\	2a/
=82	=82	=82	=82
0r	0r	2d\	2f/
.	.	2B-\	2g/
.	.	2c\	[1a
.	.	[2d\	.
=83	=83	=83	=83
1r	1r	4d\]	2a/]
.	.	4c\	.
.	.	4B-\	2d/
.	.	4A/	.
1G	1G	1B-	[1d
=84	=84	=84	=84
1F	1d	1.A	1d]
1F	1d	.	1r
.	.	2F/	.
=85	=85	=85	=85
2E-\	2c\	2G/	0r
2C/	2A/	2A/	.
2D\	2B-\	2F/	.
2E-i\	2c\	2G/	.
=86	=86	=86	=86
2C/	2A/	2E/	0r
2D\	2B-\	2F/	.
2E-i\	2c\	2G/	.
[2F\	[2d\	[2A/	.
=87	=87	=87	=87
4F\]	4d\]	4A/]	0r
4E-i\	4c\	4G/	.
2D\	1B-	1F	.
1C	.	.	.
.	2A/	2E/	.
=88	=88	=88	=88
1BB-	1B-	0F	0r
2r	2r	.	.
2D\	2B-\	.	.
=89	=89	=89	=89
2C/	2A/	2r	0r
2AA/	2F/	2F/	.
2BB-/	2G/	2D/	.
2C/	2A/	2E/	.
=90	=90	=90	=90
2AA/	2F/	2F/	0r
2BB-/	2G/	2D/	.
2C/	2A/	2E/	.
[2D\	[2B-\	[2F/	.
=91	=91	=91	=91
4D\]	4B-\]	4F/]	1r
4C/	4A/	4E/	.
2BB-/	1G	1D	.
1AA	.	.	1a
.	2F#i/	2C/	.
=92	=92	=92	=92
0GG	0G	2D/	1b-
.	.	1d	.
.	.	.	2b-\
.	.	2e-\	2g/
=93	=93	=93	=93
0r	0r	2.d\	2.b-\
.	.	4c\	4a/
.	.	2B-\	2g/
.	.	2A/	2f#i/
=94	=94	=94	=94
2r	2r	0G	0g
1G	1B-	.	.
2C/	2c\	.	.
=95	=95	=95	=95
2.G\	2.B-\	0r	0r
4F\	4A/	.	.
2E\	2G/	.	.
2D\	2F/	.	.
=96	=96	=96	=96
2C/	2G/	2r	0r
1D	1F	2.d\	.
.	.	4c\	.
2GG/	2G/	4B-\	.
.	.	4A/	.
=97	=97	=97	=97
2.D\	2.F/	2.B-\	0r
4C/	4E/	4A/	.
2BB-/	2D/	2G/	.
2AA/	2C/	2F#i/	.
=98	=98	=98	=98
0GG	2D/	2.G/	1.b-
.	1d	.	.
.	.	4A/	.
.	.	2B-\	.
.	2e-\	2c\	4a/
.	.	.	4g/
=99	=99	=99	=99
2r	2.d\	1d	2f/
1G	.	.	2b-\
.	4c\	.	.
.	2B-\	2r	2g/
2F\	2A/	2f\	2cc\
=100	=100	=100	=100
2.B-\	1G	2.d\	2b-\
.	.	.	2g/
4A\	.	4e\	.
2F\	2r	2f\	2a/
[2G\	[2G/	4B-\	[2b-\
.	.	4c\	.
=101	=101	=101	=101
2G\]	2G/]	4d\	2b-\]
.	.	4e\	.
2F\	2A/	2f\	2a/
1G	2B-\	2B-\	1g
.	2G/	2c\	.
=102	=102	=102	=102
0D	2A/	1d	1f
.	1B-	.	.
.	.	2d\	2r
.	4A/	[2d\	2d/
.	4G/	.	.
=103	=103	=103	=103
2r	[0Al	2d\]	2.f/
1D	.	4c\	.
.	.	4B-\	4g/
.	.	[1A	4a/
.	.	.	4b-\
2C/	.	.	[2cc\
=104	=104	=104	=104
2.F\	0A_	1A]	4cc\]
.	.	.	4b-\
.	.	.	2.a/
4E\	.	.	.
2C/	.	2r	.
.	.	.	4g/
[2D\	.	[2d\	4f/
.	.	.	4e/
=105	=105	=105	=105
2D\]	0A_	2d\]	2f/
2C/	.	2e\	2e/
1D	.	1f	1d
=106	=106	=106	=106
0AAl	0A]	0el	0cl
!!LO:LB:i:g=z
=107||	=107||	=107||	=107||
*>B	*>B	*>B	*>B
*k[b-]	*k[b-]	*k[b-]	*k[b-]
*M2/1	*M2/1	*M2/1	*M2/1
*met(C|)	*met(C|)	*met(C|)	*met(C|)
!!section: Secunda pars
!!!OMD: Secunda pars
1.G	0r	1r	0r
.	.	[1d	.
2G\	.	.	.
=108	=108	=108	=108
2F\	0r	2d\]	0r
2G\	.	2d\	.
2C/	.	2c\	.
[2G\	.	2d\	.
=109	=109	=109	=109
2G\]	0r	2G/	0r
4F\	.	1d	.
4E\	.	.	.
1D	.	.	.
.	.	4c\	.
.	.	4B-\	.
=110	=110	=110	=110
2r	0r	1A	0r
1D	.	.	.
.	.	2r	.
2D\	.	[2A/	.
=111	=111	=111	=111
2C/	0r	2A/]	0r
2D\	.	2A/	.
2GG/	.	2G/	.
[2D\	.	2A/	.
=112	=112	=112	=112
2D\]	0r	2D/	0r
4C/	.	1A	.
4BB-/	.	.	.
2AA/	.	.	.
2GG/	.	[2B-\	.
=113	=113	=113	=113
2BB-/	0r	4B-\]	0r
.	.	4A/	.
2C/	.	1G	.
1AA	.	.	.
.	.	2F/	.
=114	=114	=114	=114
2GG/	0r	4G/	0r
.	.	4A/	.
2.G\	.	4B-\	.
.	.	4c\	.
.	.	4d\	.
4F\	.	4e\	.
2D\	.	[2f\	.
=115	=115	=115	=115
2F\	0r	4f\]	0r
.	.	4e\	.
2G\	.	1d	.
1E	.	.	.
.	.	2c#i\	.
=116	=116	=116	=116
0D	1.d	0d	1r
.	.	.	[1a
.	2d\	.	.
=117	=117	=117	=117
0r	2c\	0r	2a/]
.	2d\	.	2a/
.	2G/	.	2g/
.	[2d\	.	2a/
=118	=118	=118	=118
0r	2d\]	0r	2d/
.	4c\	.	1a
.	4B-\	.	.
.	1A	.	.
.	.	.	4g/
.	.	.	4f/
=119	=119	=119	=119
0r	2G/	0r	1e
.	2g\	.	.
.	2r	.	2d/
.	2g\	.	2dd\
=120	=120	=120	=120
0r	2f\	0r	2r
.	2g\	.	2dd\
.	2c\	.	2cc\
.	[2g\	.	2dd\
=121	=121	=121	=121
1r	2g\]	0r	2g/
.	4f\	.	2.dd\
.	4e\	.	.
2r	2d\	.	.
.	.	.	4cc\
[2G\	[2g\	.	4b-\
.	.	.	4a/
=122	=122	=122	=122
2G\]	2g\]	0r	2b-\
2A\	2e\	.	4cc\
.	.	.	4b-\
2F\	2f\	.	4a/
.	.	.	4g/
[2G\	[2d\	.	[2b-\
=123	=123	=123	=123
2G\]	4d\]	1r	4b-\]
.	4c\	.	4a/
2G\	2B-\	.	1g
1D	1A	1d	.
.	.	.	2f#i/
=124	=124	=124	=124
1GG	1G	1e	1g
1r	1r	1f	2r
.	.	.	2a/
=125	=125	=125	=125
0r	0r	1g	1b-
.	.	2e\	1cc
.	.	[2f\	.
=126	=126	=126	=126
0r	0r	4f\]	2a/
.	.	4e\	.
.	.	4d\	2.b-\
.	.	4c\	.
.	.	2d\	.
.	.	.	4a/
.	.	[2c\	[2a/
=127	=127	=127	=127
0r	0r	4c\]	4a/]
.	.	4B-\	4g/
.	.	4A/	2.g/
.	.	4G/	.
.	.	1A	.
.	.	.	4f#i/
.	.	.	2f#i/
=128	=128	=128	=128
2r	2r	1G	1g
2G\	2B-\	.	.
2A\	2c\	1r	1r
2F\	2d\	.	.
=129	=129	=129	=129
2G\	2B-\	0r	0r
2A\	2c\	.	.
2F\	2d\	.	.
2E\	2c\	.	.
=130	=130	=130	=130
2D\	2d\	2r	2r
2G\	2B-\	2B-\	2g/
2F\	2c\	2A/	2a/
2D\	2d\	[2d\	2b-\
=131	=131	=131	=131
2G\	2B-\	4d\]	2g/
.	.	8c\L	.
.	.	8B-\J	.
2F\	2c\	2A/	2a/
2D\	2d\	2r	2f/
2A\	2c\	2A/	2e/
=132	=132	=132	=132
1D	1d	1B-	2d/
.	.	.	1dd
1G	2r	1G	.
.	[2g\	.	2b-\
=133	=133	=133	=133
2E\	2g\]	1.c	2g/
2C/	2e\	.	2cc\
2F\	2f\	.	2a/
2G\	2d\	2B-\	2b-\
=134	=134	=134	=134
1A	2e\	1A	2.cc\
.	2.f\	.	.
.	.	.	4b-\
1D	.	2r	4a/
.	4e\	.	4g/
.	4d\	[2d\	2f/
.	4c\	.	.
=135	=135	=135	=135
2G\	2B-\	4d\]	2g/
.	.	4e\	.
2D\	2A/	2f\	2f/
1G	2B-\	2B-\	2g/
.	2G/	[2d\	2b-\
=136	=136	=136	=136
2F\	0d	4d\]	4a/
.	.	4c\	4g/
2G\	.	2B-\	1g
1D	.	1A	.
.	.	.	2f#i/
=137	=137	=137	=137
0GG	0r	2G/	2g/
.	.	1g	1b-
.	.	2g\	2b-\
=138	=138	=138	=138
0r	0r	2g\	2b-\
.	.	2f\	2a/
.	.	2g\	2b-\
.	.	2e\	2cc\
=139	=139	=139	=139
2r	2r	0d	0dd
1G	1B-	.	.
2G\	2B-\	.	.
=140	=140	=140	=140
2G\	2B-\	0r	0r
2F\	2A/	.	.
2G\	2B-\	.	.
2E\	2c\	.	.
=141	=141	=141	=141
2D\	2d\	2r	2r
1G	1B-	1d	1g
2G\	2B-\	2d\	2g/
=142	=142	=142	=142
2G\	2B-\	2d\	2g/
2F\	2A/	2d\	2a/
2G\	2B-\	2B-\	2g/
2E\	2c\	2G/	2g/
=143	=143	=143	=143
0D	0d	2A/	1f
.	.	2d\	.
.	.	2d\	2r
.	.	2d\	2b-\
=144	=144	=144	=144
0r	0r	1d	2b-\
.	.	.	2b-\
.	.	2G/	1b-
.	.	2d\	.
=145	=145	=145	=145
0r	0r	2c\	2a/
.	.	2B-\	2.g/
.	.	1A	.
.	.	.	4f#i/
.	.	.	2f#/
=146	=146	=146	=146
0r	0r	0G	1g
.	.	.	2r
.	.	.	2d/
=147	=147	=147	=147
0r	2r	0r	2e/
.	2A/	.	2f/
.	2B-\	.	2g/
.	2c\	.	2e/
=148	=148	=148	=148
0r	2d\	0r	2f/
.	2B-\	.	2g/
.	2c\	.	2a/
.	2d\	.	2f/
=149	=149	=149	=149
0r	2B-\	0r	2g/
.	2c\	.	2a/
.	2d\	.	2b-\
.	[2e-\	.	[2cc\
=150	=150	=150	=150
0r	2e-\]	0r	4cc\]
.	.	.	4b-\
.	2d\	.	1b-
.	1c	.	.
.	.	.	2a/
=151	=151	=151	=151
0r	2r	0r	1b-
.	2B-\	.	.
.	2c\	.	2r
.	2d\	.	2f/
=152	=152	=152	=152
0r	2B-\	0r	2g/
.	2c\	.	2a/
.	2d\	.	2f/
.	2B-\	.	2g/
=153	=153	=153	=153
0r	2c\	0r	2a/
.	2d\	.	2f/
.	2B-\	.	2g/
.	[2c\	.	[2a/
=154	=154	=154	=154
0r	4c\]	0r	4a/]
.	4B-\	.	4g/
.	2G/	.	1g
.	1A	.	.
.	.	.	2f#i/
=155	=155	=155	=155
1r	0G	2r	1g
.	.	2d\	.
1G	.	4d\	1b-
.	.	4c\	.
.	.	4d\	.
.	.	4e\	.
=156	=156	=156	=156
2F\	2r	2f\	2a/
2D\	2d\	2f\	2f/
1G	2d\	2B-\	1b-
.	2e\	2c\	.
=157	=157	=157	=157
2F\	1f	1d	2a/
2D\	.	.	2f/
1E-	2B-\	2.G/	1g
.	2c\	.	.
.	.	4A/	.
=158	=158	=158	=158
1D	1d	2.B-\	1f
.	.	4c\	.
1G	1G	2d\	1b-
.	.	2e\	.
=159	=159	=159	=159
2F\	2A/	1f	2a/
2D\	1B-	.	2f/
1E-i	.	2B-\	1g
.	2G/	2c\	.
=160	=160	=160	=160
2D\	1.A	1.d	0f
2D\	.	.	.
2D\	.	.	.
[2D\	2F/	4c\	.
.	.	4B-\	.
=161	=161	=161	=161
2D\]	0F	0A	2r
4C/	.	.	2f/
4BB-/	.	.	.
1AA	.	.	2f/
.	.	.	2f/
=162	=162	=162	=162
1GG	2r	2r	2g/
.	2d\	2B-\	2d/
2r	2d\	2B-\	1g
2GG/	2e\	2B-\	.
=163	=163	=163	=163
0D	2.f\	1A	0f
.	4e\	.	.
.	2d\	2r	.
.	2c\	2F/	.
=164	=164	=164	=164
1E-	2B-\	1G	1r
.	2G/	.	.
1D	1A	1d	1f
=165	=165	=165	=165
0G	0G	2.B-\	1g
.	.	4c\	.
.	.	2d\	1b-
.	.	2e\	.
=166	=166	=166	=166
1F	2r	1f	1a
.	2A/	.	.
1E-i	2B-\	2B-\	1g
.	2G/	2c\	.
=167	=167	=167	=167
1D	1A	1d	1f
1GG	1B-	1d	1g
=168	=168	=168	=168
2D\	2A/	1d	2f/
2BB-/	2B-\	.	2d/
1C	2G/	1c	1e
.	2G/	.	.
=169	=169	=169	=169
1GG	1G	0d	1d
2r	2r	.	1r
2G\	2B-\	.	.
=170	=170	=170	=170
2C/	2G/	0r	1G
1G	1B-	.	.
.	.	.	2G/
4F\	4A/	.	2G/
4E\	4G/	.	.
=171	=171	=171	=171
2D\	2F/	0r	1d
2GG/	1G	.	.
1D	.	.	1d
.	2F/	.	.
=172	=172	=172	=172
0GG	0G	1G	2.e/
.	.	.	4d/
.	.	2G/	[1g
.	.	2G/	.
=173	=173	=173	=173
0r	0r	1d	2g/]
.	.	.	4f/
.	.	.	4e/
.	.	1d	1f
=174	=174	=174	=174
1GG	0r	2.e\	2.g/
.	.	4d\	4a/
2GG/	.	[1g	4b-\
.	.	.	4cc\
2GG/	.	.	[2b-\
=175	=175	=175	=175
1D	0r	2g\]	2b-\]
.	.	4f\	4a/
.	.	4e\	4g/
1D	.	1f	1a
=176	=176	=176	=176
2.E\	1G	0g	0g
4D\	.	.	.
[1G	2G/	.	.
.	2G/	.	.
=177	=177	=177	=177
2G\]	1d	0r	1r
4F\	.	.	.
4E\	.	.	.
1F	1d	.	1dd
=178	=178	=178	=178
1G	2.e\	1r	2g/
.	.	.	2.dd\
.	4d\	.	.
2.G\	[1g	2r	.
.	.	.	4cc\
.	.	2G/	[2b-\
4F\	.	.	.
=179	=179	=179	=179
1E-	2g\]	2B-\	2b-\]
.	4f\	2c\	4a/
.	4e\	.	4g/
1D	1f	1d	1a
=180	=180	=180	=180
2GG/	2g\	1B-	2g/
2G\	2G/	.	2b-\
2F\	2A/	2c\	2a/
[2G\	4G/	2B-\	[2b-\
.	4A/	.	.
=181	=181	=181	=181
4G\]	4B-\	1G	4b-\]
4F\	4c\	.	4a/
4E-i\	1d	.	4g/
4D\	.	.	4f/
1E-i	.	2r	1g
.	2c\	2G/	.
=182	=182	=182	=182
[0Dl	[0dl	1A	[0fl
.	.	1B-	.
=183	=183	=183	=183
0D]	0d]	0Al	0f]
==	==	==	==
*-	*-	*-	*-
!!!RDF**kern: l=long note in original notation
!!!RDF**kern: i=editorial accidental
!!!RDF**kern: V=start of tuplet marker
!!!RDF**kern: Z=end of tuplet marker
!!!ENC:	Joel Chapman 2012/1/17
!!!END:	2012/01/17/
!!!EED:	Jesse Rodin
!!!EEV:	2012/02/02/
!!attribution-level@Jos: 3 (tricky)
!!!ONB:	Translated from MusicXML and edited on 2012/02/02/ by Craig Sapp
!!muse2ps: C^@{COA}?\n@{SCT}^i2I150v95,95,95,150c115Q16
